icons/svg/poi/windsock.svg

<svg xmlns:ns0="http://sodipodi.sourceforge.net/DTD/sodipodi-0.dtd" xmlns:ns1="http://www.inkscape.org/namespaces/inkscape" xmlns:rdf="http://www.w3.org/1999/02/22-rdf-syntax-ns#" width="48" height="48" viewBox="0 0 48 48" version="1.1" id="svg4" ns0:docname="windsock.svg" style="fill:none" ns1:version="0.92.5 (2060ec1f9f, 2020-04-08)" xmlns="http://www.w3.org/2000/svg">
  <metadata id="metadata10">
    <RDF>
      <Work rdf:about="">
        <format>image/svg+xml</format>
        <type rdf:resource="http://purl.org/dc/dcmitype/StillImage" />
        <title />
      </Work>
    </RDF>
  </metadata>
  <defs id="defs8" />
  <namedview pagecolor="#ffffff" bordercolor="#666666" borderopacity="1" objecttolerance="10" gridtolerance="10" guidetolerance="10" ns1:pageopacity="0" ns1:pageshadow="2" ns1:window-width="1920" ns1:window-height="1014" id="namedview6" showgrid="true" ns1:zoom="13.02069" ns1:cx="24.011322" ns1:cy="24.688113" ns1:window-x="1920" ns1:window-y="0" ns1:window-maximized="1" ns1:current-layer="svg4">
    <grid type="xygrid" id="grid817" spacingx="2" spacingy="2" />
  </namedview>
  <path style="color:#000000;font-style:normal;font-variant:normal;font-weight:normal;font-stretch:normal;font-size:medium;line-height:normal;font-family:sans-serif;font-variant-ligatures:normal;font-variant-position:normal;font-variant-caps:normal;font-variant-numeric:normal;font-variant-alternates:normal;font-feature-settings:normal;text-indent:0;text-align:start;text-decoration:none;text-decoration-line:none;text-decoration-style:solid;text-decoration-color:#000000;letter-spacing:normal;word-spacing:normal;text-transform:none;writing-mode:lr-tb;direction:ltr;text-orientation:mixed;dominant-baseline:auto;baseline-shift:baseline;text-anchor:start;white-space:normal;shape-padding:0;clip-rule:nonzero;display:inline;overflow:visible;visibility:visible;opacity:1;isolation:auto;mix-blend-mode:normal;color-interpolation:sRGB;color-interpolation-filters:linearRGB;solid-color:#000000;solid-opacity:1;vector-effect:none;fill:#ffffff;fill-opacity:1;fill-rule:evenodd;stroke:none;stroke-width:4;stroke-linecap:round;stroke-linejoin:miter;stroke-miterlimit:4;stroke-dasharray:none;stroke-dashoffset:0;stroke-opacity:1;color-rendering:auto;image-rendering:auto;shape-rendering:auto;text-rendering:auto;enable-background:accumulate" d="M 9.9707031,3.9726562 A 2.0002,2.0002 0 0 0 8,6 v 36 a 2.0002,2.0002 0 1 0 4,0 V 6 A 2.0002,2.0002 0 0 0 9.9707031,3.9726562 Z" id="path819" ns1:connector-curvature="0" />
  <path style="color:#000000;font-style:normal;font-variant:normal;font-weight:normal;font-stretch:normal;font-size:medium;line-height:normal;font-family:sans-serif;font-variant-ligatures:normal;font-variant-position:normal;font-variant-caps:normal;font-variant-numeric:normal;font-variant-alternates:normal;font-feature-settings:normal;text-indent:0;text-align:start;text-decoration:none;text-decoration-line:none;text-decoration-style:solid;text-decoration-color:#000000;letter-spacing:normal;word-spacing:normal;text-transform:none;writing-mode:lr-tb;direction:ltr;text-orientation:mixed;dominant-baseline:auto;baseline-shift:baseline;text-anchor:start;white-space:normal;shape-padding:0;clip-rule:nonzero;display:inline;overflow:visible;visibility:visible;opacity:1;isolation:auto;mix-blend-mode:normal;color-interpolation:sRGB;color-interpolation-filters:linearRGB;solid-color:#000000;solid-opacity:1;vector-effect:none;fill:#ffffff;fill-opacity:1;fill-rule:evenodd;stroke:none;stroke-width:4;stroke-linecap:round;stroke-linejoin:round;stroke-miterlimit:4;stroke-dasharray:none;stroke-dashoffset:0;stroke-opacity:1;color-rendering:auto;image-rendering:auto;shape-rendering:auto;text-rendering:auto;enable-background:accumulate" d="M 17.996094,6 C 16.893096,6.00226 16.000108,6.8969996 16,8 v 16 c -1.3e-4,1.34559 1.301693,2.307465 2.587891,1.912109 L 24,24.246094 V 7.7539062 L 18.587891,6.0878906 C 18.396147,6.0290901 18.19665,5.9994619 17.996094,6 Z M 28,8.984375 v 14.03125 l 8,-2.460937 v -9.109376 z m 12,3.691406 v 6.648438 l 4.587891,-1.41211 c 1.884187,-0.578487 1.884187,-3.245731 0,-3.824218 z" id="path823" ns1:connector-curvature="0" />
</svg>

<svg width="48" height="48" fill="none" version="1.1" viewBox="0 0 48 48" xmlns="http://www.w3.org/2000/svg">
 <namedview bordercolor="#666666" borderopacity="1" gridtolerance="10" guidetolerance="10" objecttolerance="10" pagecolor="#ffffff" showgrid="true">
  <grid spacingx="2" spacingy="2" type="xygrid"/>
 </namedview>
 <path d="m9.9707 3.9727a2.0002 2.0002 0 0 0-1.9707 2.0273v36a2.0002 2.0002 0 1 0 4 0v-36a2.0002 2.0002 0 0 0-2.0293-2.0273z" color="#000000" color-rendering="auto" dominant-baseline="auto" fill="#ffffff" fill-rule="evenodd" image-rendering="auto" shape-rendering="auto" solid-color="#000000" style="font-feature-settings:normal;font-variant-alternates:normal;font-variant-caps:normal;font-variant-ligatures:normal;font-variant-numeric:normal;font-variant-position:normal;isolation:auto;mix-blend-mode:normal;shape-padding:0;text-decoration-color:#000000;text-decoration-line:none;text-decoration-style:solid;text-indent:0;text-orientation:mixed;text-transform:none;white-space:normal"/>
 <path d="m17.996 6c-1.103 0.00226-1.996 0.897-1.9961 2v16c-1.3e-4 1.3456 1.3017 2.3075 2.5879 1.9121l5.4121-1.666v-16.492l-5.4121-1.666c-0.19174-0.0588-0.39124-0.088429-0.5918-0.087891zm10.004 2.9844v14.031l8-2.4609v-9.1094zm12 3.6914v6.6484l4.5879-1.4121c1.8842-0.57849 1.8842-3.2457 0-3.8242z" color="#000000" color-rendering="auto" dominant-baseline="auto" fill="#ffffff" fill-rule="evenodd" image-rendering="auto" shape-rendering="auto" solid-color="#000000" style="font-feature-settings:normal;font-variant-alternates:normal;font-variant-caps:normal;font-variant-ligatures:normal;font-variant-numeric:normal;font-variant-position:normal;isolation:auto;mix-blend-mode:normal;shape-padding:0;text-decoration-color:#000000;text-decoration-line:none;text-decoration-style:solid;text-indent:0;text-orientation:mixed;text-transform:none;white-space:normal"/>
</svg>
